X: 1
T: Tom Kruskal's
T: for the dance Sapphire Sea
C: dance: Christine Robb
C: tune: Amelia Mason and Emily Troll
S: https://www.youtube.com/watch?v=g-8LyExynvA 2016-11-12
R: reel
Z: 2016 John Chambers <jc:trillian.mit.edu>
M: 2/4
L: 1/8
K: F
[|\
"F"F2 cF | GF CF | "Bb"DF Fc | BA GF |\
"Dm"c2 BA | GF DF | "Bb"CF FE | "C"F2 AG ||\
"F"GF cF | GF CF |
"Bb"DF Fc | BA GF |\
"Gm"B3 A | GF DF | "C" CF FE | "F"FG AB |]|\
"F"c2 BA | GF DC | "Bb"DB AB | AF GA |\
"Dm"DB AB |
AF GA | "Bb"Ac cA | "C"G2 AB ||\
"F(Bb)"c2 BA | GF Ac | "Dm"dA AG | A2 GA |\
"Gm"B3 A | GF DF | "C"CF FE | H"F"F2 AG |]
